X:1
T:Title
%%score { ( 1 3 ) | ( 2 4 ) }
L:1/8
M:6/8
K:A
V:1 treble nm="Grand Piano"
V:3 treble 
V:2 bass 
V:4 bass 
V:1
 z3 z2[Q:1/4=100] [CE] | [CA]2 [CA] B2 G | [CA] [CE]2- [CE]2 [CE] | c2 c d2 B | %4
[M:5/8] [Ec]- [Ec]3 z |[M:1/8] [Ec] |[M:3/4] [FB]2 [FA] [EG]2 [DF] | [FB][FA]- [FA]3 [DF] | %8
 [CE]2 [DF] [CE]2[K:bass] [E,A,C] |[M:5/8] [A,CE]- [A,CE]3 z |[M:1/8][K:treble] [CEA] | %11
[M:3/4] [B,EG]2 [CEA] [DGB]2 [CAc] | [Gd]3 B2 G | [CA]2 [Ec] e2 c |[M:5/8] B- B3 z |[M:1/8] E | %16
[M:3/4] c2 c [DB]2 [CA] | [DB][DF]- [DF]3 [Fd] | [Ec]2 [Fd] [Ec]2 [DB] |[M:5/8] [CA]- [CA]3 z | %20
[M:1/8] [=GA] |[M:3/4] [FA] [Fd]2 [Fd]2 [Fe] | [Fd]6 | E c2 e2 c |[M:5/8] B- B3 z |[M:1/8] E | %26
[M:3/4] c2 c [DB]2 [CA] | [DB][DF]- [DF]3 [Fd] | [Ec]2 [Fd] [Ec]2 [DB] | %29
[M:13/8] [CA]- [CA]3 z z z z z z z z2 |] %30
V:2
 z3 z2 [A,,A,] | [A,,E,]2 [A,,E,] [E,D]2 [E,B,] | [A,,E,] [A,,A,]2- [A,,A,]2 [A,,A,] | %3
 [A,E]2 [A,E] [E,B,E]2 [E,G,E] |[M:5/8] [A,,A,]- [A,,A,]3 z |[M:1/8] [A,,A,] | %6
[M:3/4] [D,A,]2 [D,A,] [D,A,]2 [D,A,] | [D,A,][D,A,]- [D,A,]3 [D,A,] | %8
 [A,,A,]2 [A,,A,] [A,,A,]2 A,, |[M:5/8] A,,- A,,3 z |[M:1/8] A,, |[M:3/4] E,2 E, E,2 E, | %12
 [E,B,]3 [E,G,E]2 [E,D] | [A,,E,]2 [A,,A,] [A,CE]2 [A,E] |[M:5/8] [E,G,E]- [E,G,E]3 z | %15
[M:1/8] [E,G,] |[M:3/4] [A,E]2 [A,E] [A,,E,]2 [A,,E,] | [D,F,][D,A,]- [D,A,]3 [D,A,] | %18
 [E,A,]2 [E,A,] [E,G,]2 [E,G,] |[M:5/8] [A,,E,A,]- [A,,E,A,]3 z |[M:1/8] [A,C] | %21
[M:3/4] [D,D] [D,A,]2 [D,A,]2 [D,A,] | [D,A,]2 D, D,2 [D,A,D] | [A,C] [A,E]2 [A,CE]2 [A,E] | %24
[M:5/8] E- E3 z |[M:1/8] [E,G,] |[M:3/4] [A,E]2 [A,E] [A,,E,]2 [A,,E,] | %27
 [D,F,][D,A,]- [D,A,]3 [D,A,] | [E,A,]2 [E,A,] [E,G,]2 [E,G,] | %29
[M:13/8] [A,,E,A,]- [A,,E,A,]3 z z z z z z z z2 |] %30
V:3
 x6 | x6 | x6 | x6 |[M:5/8] x5 |[M:1/8] x |[M:3/4] x6 | x6 | x5[K:bass] x |[M:5/8] x5 | %10
[M:1/8][K:treble] x |[M:3/4] x6 | x6 | x6 |[M:5/8] x5 |[M:1/8] x |[M:3/4] x6 | x6 | x6 | %19
[M:5/8] x5 |[M:1/8] x |[M:3/4] x6 | z2 A, A,2 F | x6 |[M:5/8] z2 G, G, z |[M:1/8] x |[M:3/4] x6 | %27
 x6 | x6 |[M:13/8] x13 |] %30
V:4
 x6 | x6 | x6 | x6 |[M:5/8] x5 |[M:1/8] x |[M:3/4] x6 | x6 | x6 |[M:5/8] x5 |[M:1/8] x | %11
[M:3/4] x6 | x6 | x6 |[M:5/8] x5 |[M:1/8] x |[M:3/4] x6 | x6 | x6 |[M:5/8] x5 |[M:1/8] x | %21
[M:3/4] x6 | x6 | x6 |[M:5/8] [E,G,]2 E, E, z |[M:1/8] x |[M:3/4] x6 | x6 | x6 |[M:13/8] x13 |] %30

